src/img/calc/shin1.svg

<svg width="54" height="62" viewBox="0 0 54 62" fill="none" xmlns="http://www.w3.org/2000/svg">
<g clip-path="url(#clip0)">
<path d="M11.7 0C11.7 0 12.6 6.8 12.7 22.7C12.7 35.7 12.5 40.5 12.7 45.7C12.9 52.9 11.6 57.1 11.6 57.1C11.6 57.1 12 51.1 11.7 46.9C11.3 41.4 11.9 29 11.7 23.4C11.3 15.5 11.7 0 11.7 0Z" fill="#3A4561"/>
<path d="M4.2 3.1001C4.2 3.1001 -2.8 12.3001 1.4 21.8001C5.5 31.0001 7.9 35.0001 4.3 40.3001C4.3 40.3001 7.1 37.6001 6.7 33.9001C6.4 30.1001 2.6 20.4001 2 14.7001C1.3 8.2001 4.2 3.1001 4.2 3.1001Z" fill="#3A4561"/>
<path d="M3.7 40.7998C3.7 40.7998 -1.8 44.2998 0.700001 47.4998C2.9 50.3998 7.4 49.5998 7.7 53.6998C8 57.7998 8 60.2998 12.5 61.2998C17.5 62.4998 16 59.7998 14.7 58.7998C14.7 58.7998 16.1 60.2998 15 60.8998C14.1 61.3998 10.8 60.9998 9.3 58.8998C7.5 56.3998 9.1 52.8998 7.2 50.8998C5.7 49.2998 1.8 48.3998 1.5 45.5998C1.1 42.8998 3.7 40.7998 3.7 40.7998Z" fill="#3A4561"/>
<path d="M38.7 45.2999C45.9 50.3999 48.2 54.8999 48.2 54.8999C48.2 54.8999 41.8 48.0999 38.4 46.2999C35 44.5999 23 30.8999 18.7 25.5999C16 22.2999 14.4 18.8999 14.4 18.8999C14.4 18.8999 33.1 41.3999 38.7 45.2999Z" fill="#3A4561"/>
<path d="M31.6 47.6001C31.6 47.6001 29.9 49.5001 30.2 52.1001C30.4 54.4001 31.8 55.6001 35.5 55.3001C39.2 55.0001 40.9 55.0001 42.7 56.5001C44.5 58.0001 46.1 58.5001 49 58.3001C51.1 58.1001 52.9 57.7001 53.4 57.0001C53.6 56.8001 53.7 56.4001 53.4 56.2001C52.8 55.5001 50.7 55.4001 50.7 55.4001C50.7 55.4001 52.6 55.8001 52.7 56.5001C52.8 57.1001 51 57.7001 49.1 57.9001C47.2 58.1001 44.6 57.3001 42.8 55.6001C41 53.8001 39 53.8001 36.7 54.0001C34.4 54.2001 31.7 54.5001 30.9 51.9001C30.3 49.8001 31.6 47.6001 31.6 47.6001Z" fill="#3A4561"/>
<path d="M14.6 34.6001C14.6 34.6001 29.3 43.8001 30.3 47.9001C30.3 47.9001 31.5 44.6001 25.2 40.2001C19.1 35.8001 14.6 34.6001 14.6 34.6001Z" fill="#3A4561"/>
</g>
<defs>
<clipPath id="clip0">
<rect width="53.5" height="61.6" fill="white"/>
</clipPath>
</defs>
</svg>

<svg width="54" height="62" fill="none" xmlns="http://www.w3.org/2000/svg"><g clip-path="url(#clip0)" fill="#3A4561"><path d="M11.7 0s.9 6.8 1 22.7c0 13-.2 17.8 0 23 .2 7.2-1.1 11.4-1.1 11.4s.4-6 .1-10.2c-.4-5.5.2-17.9 0-23.5-.4-7.9 0-23.4 0-23.4zM4.2 3.1s-7 9.2-2.8 18.7C5.5 31 7.9 35 4.3 40.3c0 0 2.8-2.7 2.4-6.4-.3-3.8-4.1-13.5-4.7-19.2C1.3 8.2 4.2 3.1 4.2 3.1z"/><path d="M3.7 40.8s-5.5 3.5-3 6.7c2.2 2.9 6.7 2.1 7 6.2.3 4.1.3 6.6 4.8 7.6 5 1.2 3.5-1.5 2.2-2.5 0 0 1.4 1.5.3 2.1-.9.5-4.2.1-5.7-2-1.8-2.5-.2-6-2.1-8-1.5-1.6-5.4-2.5-5.7-5.3-.4-2.7 2.2-4.8 2.2-4.8zM38.7 45.3c7.2 5.1 9.5 9.6 9.5 9.6s-6.4-6.8-9.8-8.6C35 44.6 23 30.9 18.7 25.6c-2.7-3.3-4.3-6.7-4.3-6.7s18.7 22.5 24.3 26.4z"/><path d="M31.6 47.6s-1.7 1.9-1.4 4.5c.2 2.3 1.6 3.5 5.3 3.2 3.7-.3 5.4-.3 7.2 1.2 1.8 1.5 3.4 2 6.3 1.8 2.1-.2 3.9-.6 4.4-1.3.2-.2.3-.6 0-.8-.6-.7-2.7-.8-2.7-.8s1.9.4 2 1.1c.1.6-1.7 1.2-3.6 1.4-1.9.2-4.5-.6-6.3-2.3-1.8-1.8-3.8-1.8-6.1-1.6-2.3.2-5 .5-5.8-2.1-.6-2.1.7-4.3.7-4.3zM14.6 34.6s14.7 9.2 15.7 13.3c0 0 1.2-3.3-5.1-7.7-6.1-4.4-10.6-5.6-10.6-5.6z"/></g><defs><clipPath id="clip0"><path fill="#fff" d="M0 0h53.5v61.6H0z"/></clipPath></defs></svg>
